public/img/favicon.svg

<?xml version="1.0" encoding="utf-8"?>
<svg viewBox="0 0 22.459 14.463" width="22.459" height="14.463" xmlns="http://www.w3.org/2000/svg">
  <g id="layer1" transform="matrix(1, 0, 0, 1, 0, -278.363007)">
    <g id="text12" aria-label="ETM" style="font-style:normal;font-variant:normal;font-weight:normal;font-stretch:normal;font-size:10.58333302px;line-height:0;font-family:'GeoSlb712 Md BT';-inkscape-font-specification:'GeoSlb712 Md BT';letter-spacing:0px;word-spacing:0px;fill:#000000;fill-opacity:1;stroke:none;stroke-width:0.26458332" transform="translate(21.710744,188.73382)">
      <path id="path49" d="m -6.6418963,96.366997 v 5.591393 h 1.0490315 v 0.95084 h -2.8680419 v -0.95084 h 0.8888346 v -5.493208 h -0.8888346 v -0.89917 h 2.5941569 l 2.0205484,1.293229 2.0722249,-1.293229 h 2.52180979 v 0.89917 h -0.8991699 v 5.493208 h 0.8991699 v 0.95084 H -2.1305439 v -0.95084 h 0.8888346 v -5.503543 l -2.6251627,1.278462 h -0.2118733 z m -4.7852377,0.09819 v 5.493203 h 0.888835 v 0.95085 h -2.816366 v -0.95085 h 0.8785 v -5.493203 h -1.44694 v 1.948202 h -0.888835 v -2.847372 h 5.7257485 v 2.847372 h -0.8784993 v -1.948202 z m -5.172811,5.493203 v -1.40043 h 0.888835 v 2.35128 h -5.999634 v -0.95085 h 0.868164 v -5.493203 h -0.868164 v -0.89917 h 5.999634 v 2.180746 h -0.888835 v -1.281576 h -3.193603 v 2.232422 h 2.857707 v 0.878499 h -2.857707 v 2.382292 z" style="stroke-width:0.26458332"/>
    </g>
    <rect style="fill:#000000;fill-opacity:1;stroke:none;stroke-width:0;stroke-miterlimit:4;stroke-dasharray:none;stroke-opacity:1" id="rect1289" width="22.456511" height="0.39756343" x="0" y="292.15793"/>
    <text style="font: 10.5833px / 0 &quot;GeoSlb712 Md BT&quot;; letter-spacing: 0px; word-spacing: 0px; fill: rgb(0, 0, 0); fill-opacity: 1; stroke: none; stroke-width: 0.264583; white-space: pre;" x="4.5309896" y="294.18121" id="text1293"><tspan id="tspan1291" x="4.5309896" y="296.93039" style="stroke-width:0.26458332"/></text>
    <g aria-label="Construction" transform="matrix(0.26458333,0,0,0.26458333,0,-5.4011939)" style="font-style:normal;font-variant:normal;font-weight:normal;font-stretch:normal;font-size:40px;line-height:0;font-family:'GeoSlb712 Md BT';-inkscape-font-specification:'GeoSlb712 Md BT';text-align:center;letter-spacing:0px;word-spacing:0px;text-anchor:middle;fill:#000000;fill-opacity:1;stroke:none" id="flowRoot1303"/>
  </g>
  <g id="layer2" transform="matrix(1, 0, 0, 1, 0, 2.072018)">
    <rect style="fill:none;stroke:#000000;stroke-width:0.03499166;stroke-miterlimit:4;stroke-dasharray:none;stroke-opacity:1" id="rect923" width="2.2255945" height="0.18743917" x="16.736244" y="11.020786"/>
    <rect style="fill:none;stroke:#000000;stroke-width:0.033;stroke-miterlimit:4;stroke-dasharray:none;stroke-opacity:1" id="rect931" width="1.6037889" height="2.6634285" x="17.04715" y="8.3561525"/>
    <rect style="fill:none;stroke:#000000;stroke-width:0.033;stroke-miterlimit:4;stroke-dasharray:none;stroke-opacity:1" id="use971" width="1.6037889" height="2.6634285" x="17.04715" y="8.3561525" transform="matrix(0.7831518650054932, 0, 0, 0.9354942440986633, 3.870532274246216, 0.711791455745697)"/>
    <circle style="fill:none;stroke:#000000;stroke-width:0.035;stroke-miterlimit:4;stroke-dasharray:none;stroke-opacity:1" id="path979" cx="18.287359" cy="9.7403898" r="0.081851296"/>
  </g>
  <g id="layer3" transform="matrix(1, 0, 0, 1, 0, 2.072018)">
    <g id="g1269" transform="translate(-8.9236208e-8,-285.64614)">
      <rect y="291.82599" x="15.582531" height="1.6308861" width="1.546" id="rect935" style="fill:none;stroke:#000000;stroke-width:0.035;stroke-miterlimit:4;stroke-dasharray:none;stroke-opacity:1"/>
      <rect style="fill:none;stroke:#000000;stroke-width:0.035;stroke-miterlimit:4;stroke-dasharray:none;stroke-opacity:1" id="use981" width="1.3036026" height="1.5090103" x="15.70381" y="291.94791"/>
      <rect y="292.73541" x="15.70381" height="0.72149283" width="0.61613697" id="rect1245" style="fill:none;fill-opacity:1;stroke:#000000;stroke-width:0.0344538;stroke-miterlimit:4;stroke-dasharray:none;stroke-opacity:1"/>
      <rect y="292.73541" x="15.70381" height="0.72149283" width="0.61613697" id="use1247" style="fill:none;fill-opacity:1;stroke:#000000;stroke-width:0.0344538;stroke-miterlimit:4;stroke-dasharray:none;stroke-opacity:1" transform="matrix(1, 0, 0, 1, 0.6874657273292542, 0)"/>
      <rect y="292.73541" x="15.70381" height="0.72149283" width="0.61613697" id="use1249" style="fill:none;fill-opacity:1;stroke:#000000;stroke-width:0.0344538;stroke-miterlimit:4;stroke-dasharray:none;stroke-opacity:1" transform="matrix(1, 0, 0, 1, 0, -0.7875061631202698)"/>
      <rect y="292.73541" x="15.70381" height="0.72149283" width="0.61613697" id="use1251" style="fill:none;fill-opacity:1;stroke:#000000;stroke-width:0.0344538;stroke-miterlimit:4;stroke-dasharray:none;stroke-opacity:1" transform="matrix(1, 0, 0, 1, 0.6874657273292542, -0.7875062227249146)"/>
      <rect y="293.45688" x="15.456447" height="0.12197876" width="1.7983302" id="rect1260" style="fill:none;fill-opacity:1;stroke:#000000;stroke-width:0.035;stroke-miterlimit:4;stroke-dasharray:none;stroke-opacity:1"/>
    </g>
    <g id="use1271" transform="matrix(1, 0, 0, 1, 2.84105387347131, -285.64650604705093)">
      <rect y="291.82599" x="15.582531" height="1.6308861" width="1.546" style="fill:none;stroke:#000000;stroke-width:0.035;stroke-miterlimit:4;stroke-dasharray:none;stroke-opacity:1"/>
      <rect style="fill:none;stroke:#000000;stroke-width:0.035;stroke-miterlimit:4;stroke-dasharray:none;stroke-opacity:1" width="1.3036026" height="1.5090103" x="15.70381" y="291.94791"/>
      <rect y="292.73541" x="15.70381" height="0.72149283" width="0.61613697" style="fill:none;fill-opacity:1;stroke:#000000;stroke-width:0.0344538;stroke-miterlimit:4;stroke-dasharray:none;stroke-opacity:1"/>
      <rect y="292.73541" x="15.70381" height="0.72149283" width="0.61613697" style="fill:none;fill-opacity:1;stroke:#000000;stroke-width:0.0344538;stroke-miterlimit:4;stroke-dasharray:none;stroke-opacity:1" transform="matrix(1, 0, 0, 1, 0.6874657273292542, 0)"/>
      <rect y="292.73541" x="15.70381" height="0.72149283" width="0.61613697" style="fill:none;fill-opacity:1;stroke:#000000;stroke-width:0.0344538;stroke-miterlimit:4;stroke-dasharray:none;stroke-opacity:1" transform="matrix(1, 0, 0, 1, 0, -0.7875061631202698)"/>
      <rect y="292.73541" x="15.70381" height="0.72149283" width="0.61613697" style="fill:none;fill-opacity:1;stroke:#000000;stroke-width:0.0344538;stroke-miterlimit:4;stroke-dasharray:none;stroke-opacity:1" transform="matrix(1, 0, 0, 1, 0.6874657273292542, -0.7875062227249146)"/>
      <rect y="293.45688" x="15.456447" height="0.12197876" width="1.7983302" style="fill:none;fill-opacity:1;stroke:#000000;stroke-width:0.035;stroke-miterlimit:4;stroke-dasharray:none;stroke-opacity:1"/>
    </g>
  </g>
  <g id="layer4" transform="matrix(1, 0, 0, 1, 0, 2.072018)">
    <path style="fill:#000000;fill-opacity:1;stroke:#000000;stroke-width:0;stroke-linecap:butt;stroke-linejoin:miter;stroke-miterlimit:4;stroke-dasharray:none;stroke-opacity:1" d="M 22.45651,3.6548741 H 21.573877 L 11.244792,-1.430455 0.87023115,3.6548741 H 3.5364304e-8 L 11.244792,-2.0717528 Z" id="path1287"/>
  </g>
  <style>
    @media (prefers-color-scheme:dark){:root{filter:invert(100%)}}
  </style>
</svg>

<?xml version="1.0" encoding="utf-8"?>
<svg viewBox="13.211 5.902 9.286 7.418" width="9.286" height="7.418" xmlns="http://www.w3.org/2000/svg">
  <g id="layer1" transform="matrix(1, 0, 0, 1, 0, -278.363007)">
    <g id="text12" aria-label="ETM" style="font-style:normal;font-variant:normal;font-weight:normal;font-stretch:normal;font-size:10.58333302px;line-height:0;font-family:'GeoSlb712 Md BT';-inkscape-font-specification:'GeoSlb712 Md BT';letter-spacing:0px;word-spacing:0px;fill:#000000;fill-opacity:1;stroke:none;stroke-width:0.26458332" transform="translate(21.710744,188.73382)">
      <path id="path49" d="M -6.642 96.367 L -6.642 101.958 L -5.593 101.958 L -5.593 102.909 L -8.461 102.909 L -8.461 101.958 L -7.572 101.958 L -7.572 96.465 L -8.461 96.465 L -8.461 95.566 L -5.867 95.566 L -3.846 96.859 L -1.774 95.566 L 0.748 95.566 L 0.748 96.465 L -0.151 96.465 L -0.151 101.958 L 0.748 101.958 L 0.748 102.909 L -2.131 102.909 L -2.131 101.958 L -1.242 101.958 L -1.242 96.455 L -3.867 97.733 L -4.079 97.733 L -6.642 96.367 Z" style="stroke-width:0.26458332"/>
    </g>
    <text style="font: 10.5833px / 0 &quot;GeoSlb712 Md BT&quot;; letter-spacing: 0px; word-spacing: 0px; fill: rgb(0, 0, 0); fill-opacity: 1; stroke: none; stroke-width: 0.264583; white-space: pre;" x="4.5309896" y="294.18121" id="text1293"><tspan id="tspan1291" x="4.5309896" y="296.93039" style="stroke-width:0.26458332"/></text>
    <g aria-label="Construction" transform="matrix(0.26458333,0,0,0.26458333,0,-5.4011939)" style="font-style:normal;font-variant:normal;font-weight:normal;font-stretch:normal;font-size:40px;line-height:0;font-family:'GeoSlb712 Md BT';-inkscape-font-specification:'GeoSlb712 Md BT';text-align:center;letter-spacing:0px;word-spacing:0px;text-anchor:middle;fill:#000000;fill-opacity:1;stroke:none" id="flowRoot1303"/>
  </g>
  <g id="layer2" transform="matrix(1, 0, 0, 1, 0, 2.072018)">
    <rect style="stroke: rgb(0, 0, 0); stroke-width: 0.0349917; stroke-miterlimit: 4; stroke-dasharray: none; stroke-opacity: 1;" id="rect923" width="2.2255945" height="0.18743917" x="16.736244" y="11.020786"/>
    <rect style="stroke: rgb(0, 0, 0); stroke-miterlimit: 4; stroke-dasharray: none; stroke-opacity: 1; fill: none; stroke-width: 0.3px;" id="rect931" width="1.6037889" height="2.6634285" x="17.04715" y="8.3561525"/>
    <circle style="stroke: rgb(0, 0, 0); stroke-width: 0.035; stroke-miterlimit: 4; stroke-dasharray: none; stroke-opacity: 1; fill: rgb(255, 255, 255);" id="path979" cx="18.239" cy="9.628" r="0.2"/>
  </g>
  <g id="layer3" transform="matrix(1, 0, 0, 1, 0, 2.072018)">
    <g id="g1269" transform="translate(-8.9236208e-8,-285.64614)">
      <rect y="291.82599" x="15.582531" height="1.6308861" width="1.546" id="rect935" style="fill: none; stroke: rgb(0, 0, 0); stroke-miterlimit: 4; stroke-dasharray: none; stroke-opacity: 1; stroke-width: 0.35px;"/>
      <rect style="fill:none;stroke:#000000;stroke-width:0.035;stroke-miterlimit:4;stroke-dasharray:none;stroke-opacity:1" id="use981" width="1.3036026" height="1.5090103" x="15.70381" y="291.94791"/>
      <rect y="292.73541" x="15.70381" height="0.72149283" width="0.61613697" id="rect1245" style="fill: none; fill-opacity: 1; stroke: rgb(0, 0, 0); stroke-miterlimit: 4; stroke-dasharray: none; stroke-opacity: 1; stroke-width: 0.1px;"/>
      <rect y="292.73541" x="15.70381" height="0.72149283" width="0.61613697" id="use1247" style="fill: none; fill-opacity: 1; stroke: rgb(0, 0, 0); stroke-miterlimit: 4; stroke-dasharray: none; stroke-opacity: 1; stroke-width: 0.1px;" transform="matrix(1, 0, 0, 1, 0.6874657273292542, 0)"/>
      <rect y="292.73541" x="15.70381" height="0.72149283" width="0.61613697" id="use1249" style="fill: none; fill-opacity: 1; stroke: rgb(0, 0, 0); stroke-miterlimit: 4; stroke-dasharray: none; stroke-opacity: 1; stroke-width: 0.1px;" transform="matrix(1, 0, 0, 1, 0, -0.7875061631202698)"/>
      <rect y="292.73541" x="15.70381" height="0.72149283" width="0.61613697" id="use1251" style="fill: none; fill-opacity: 1; stroke: rgb(0, 0, 0); stroke-miterlimit: 4; stroke-dasharray: none; stroke-opacity: 1; stroke-width: 0.1px;" transform="matrix(1, 0, 0, 1, 0.6874657273292542, -0.7875062227249146)"/>
      <rect y="293.45688" x="15.456447" height="0.12197876" width="1.7983302" id="rect1260" style="fill: none; fill-opacity: 1; stroke: rgb(0, 0, 0); stroke-miterlimit: 4; stroke-dasharray: none; stroke-opacity: 1; stroke-width: 0.35px;"/>
      <rect y="291.826" x="18.444" height="1.631" width="1.546" id="rect-1" style="fill: none; stroke: rgb(0, 0, 0); stroke-miterlimit: 4; stroke-dasharray: none; stroke-opacity: 1; stroke-width: 0.35px;"/>
      <rect y="292.735" x="18.565" height="0.721" width="0.616" id="rect-2" style="fill: none; fill-opacity: 1; stroke: rgb(0, 0, 0); stroke-miterlimit: 4; stroke-dasharray: none; stroke-opacity: 1; stroke-width: 0.1px;"/>
      <rect y="292.735" x="19.253" height="0.721" width="0.616" id="rect-3" style="fill: none; fill-opacity: 1; stroke: rgb(0, 0, 0); stroke-miterlimit: 4; stroke-dasharray: none; stroke-opacity: 1; stroke-width: 0.1px;"/>
      <rect y="291.948" x="18.565" height="0.721" width="0.616" id="rect-4" style="fill: none; fill-opacity: 1; stroke: rgb(0, 0, 0); stroke-miterlimit: 4; stroke-dasharray: none; stroke-opacity: 1; stroke-width: 0.1px;"/>
      <rect y="291.948" x="19.253" height="0.721" width="0.616" id="rect-5" style="fill: none; fill-opacity: 1; stroke: rgb(0, 0, 0); stroke-miterlimit: 4; stroke-dasharray: none; stroke-opacity: 1; stroke-width: 0.1px;"/>
      <rect y="293.457" x="18.318" height="0.122" width="1.798" id="rect-6" style="fill: none; fill-opacity: 1; stroke: rgb(0, 0, 0); stroke-miterlimit: 4; stroke-dasharray: none; stroke-opacity: 1; stroke-width: 0.35px;"/>
    </g>
    <g id="use1271" transform="matrix(1, 0, 0, 1, 2.84105387347131, -285.64650604705093)">
      <rect y="291.82599" x="15.582531" height="1.6308861" width="1.546" style="fill:none;stroke:#000000;stroke-width:0.035;stroke-miterlimit:4;stroke-dasharray:none;stroke-opacity:1"/>
      <rect style="fill:none;stroke:#000000;stroke-width:0.035;stroke-miterlimit:4;stroke-dasharray:none;stroke-opacity:1" width="1.3036026" height="1.5090103" x="15.70381" y="291.94791"/>
      <rect y="292.73541" x="15.70381" height="0.72149283" width="0.61613697" style="fill:none;fill-opacity:1;stroke:#000000;stroke-width:0.0344538;stroke-miterlimit:4;stroke-dasharray:none;stroke-opacity:1"/>
      <rect y="292.73541" x="15.70381" height="0.72149283" width="0.61613697" style="fill:none;fill-opacity:1;stroke:#000000;stroke-width:0.0344538;stroke-miterlimit:4;stroke-dasharray:none;stroke-opacity:1" transform="matrix(1, 0, 0, 1, 0.6874657273292542, 0)"/>
      <rect y="292.73541" x="15.70381" height="0.72149283" width="0.61613697" style="fill:none;fill-opacity:1;stroke:#000000;stroke-width:0.0344538;stroke-miterlimit:4;stroke-dasharray:none;stroke-opacity:1" transform="matrix(1, 0, 0, 1, 0, -0.7875061631202698)"/>
      <rect y="292.73541" x="15.70381" height="0.72149283" width="0.61613697" style="fill:none;fill-opacity:1;stroke:#000000;stroke-width:0.0344538;stroke-miterlimit:4;stroke-dasharray:none;stroke-opacity:1" transform="matrix(1, 0, 0, 1, 0.6874657273292542, -0.7875062227249146)"/>
      <rect y="293.45688" x="15.456447" height="0.12197876" width="1.7983302" style="fill:none;fill-opacity:1;stroke:#000000;stroke-width:0.035;stroke-miterlimit:4;stroke-dasharray:none;stroke-opacity:1"/>
    </g>
  </g>
    <style>
      @media (prefers-color-scheme:dark){:root{filter:invert(100%)}}
  </style>
</svg>
